{
  "type": "map",
  "version": "1.10",
  "tiledversion": "1.10.2",
  "orientation": "orthogonal",
  "renderorder": "right-down",
  "infinite": false,
  "width": 52,
  "height": 40,
  "tilewidth": 16,
  "tileheight": 16,
  "nextlayerid": 5,
  "nextobjectid": 12,
  "compressionlevel": -1,
  "tilesets": [
    {
      "firstgid": 1,
      "name": "coast",
      "image": "../pixellab/water-sand.png",
      "imagewidth": 64,
      "imageheight": 64,
      "tilewidth": 16,
      "tileheight": 16,
      "tilecount": 16,
      "columns": 4
    }
  ],
  "layers": [
    {
      "id": 1,
      "name": "Boden",
      "type": "tilelayer",
      "visible": true,
      "opacity": 1,
      "x": 0,
      "y": 0,
      "width": 52,
      "height": 40,
      "data": [
        12, 14, 13, 12, 12, 12, 12, 12, 12, 12, 12, 12, 12, 12, 12, 14, 13, 13, 12, 12, 12, 12, 12, 12, 12, 12, 12, 12, 12, 14, 13, 13, 12, 12, 12, 12, 12, 12, 12, 12, 12, 12, 12, 14, 13, 13, 12, 12, 12, 12, 12, 12,
        12, 14, 12, 12, 12, 12, 12, 12, 14, 12, 12, 12, 12, 12, 12, 12, 13, 13, 12, 12, 14, 12, 12, 12, 12, 12, 13, 12, 12, 12, 13, 12, 12, 12, 13, 12, 12, 12, 12, 12, 12, 12, 12, 14, 12, 12, 12, 13, 12, 12, 12, 13,
        12, 13, 13, 12, 12, 12, 12, 12, 12, 12, 12, 12, 12, 12, 12, 12, 13, 12, 12, 12, 12, 12, 12, 12, 12, 12, 12, 12, 13, 12, 12, 12, 12, 12, 12, 12, 12, 13, 12, 14, 14, 14, 12, 12, 12, 13, 13, 12, 12, 12, 12, 12,
        13, 13, 14, 12, 12, 12, 12, 12, 13, 12, 12, 13, 12, 12, 12, 12, 12, 12, 12, 12, 12, 12, 12, 14, 13, 12, 12, 12, 12, 12, 14, 12, 12, 12, 13, 13, 13, 12, 12, 12, 14, 13, 12, 12, 12, 12, 12, 12, 12, 13, 12, 12,
        12, 12, 12, 12, 12, 12, 12, 12, 12, 12, 12, 12, 12, 12, 14, 12, 12, 12, 12, 13, 12, 12, 13, 14, 12, 12, 12, 12, 12, 12, 12, 12, 13, 13, 12, 12, 12, 13, 12, 12, 13, 12, 12, 14, 12, 12, 12, 12, 12, 12, 12, 12,
        12, 12, 12, 12, 12, 12, 12, 12, 14, 12, 13, 13, 12, 12, 12, 13, 12, 12, 14, 12, 12, 14, 13, 13, 14, 12, 12, 12, 12, 14, 12, 12, 12, 12, 14, 12, 12, 12, 13, 12, 12, 12, 12, 12, 12, 12, 14, 12, 12, 12, 14, 12,
        12, 12, 13, 12, 14, 12, 12, 12, 12, 12, 12, 12, 12, 14, 12, 12, 12, 12, 12, 12, 12, 13, 13, 12, 12, 13, 12, 12, 12, 13, 12, 12, 13, 12, 12, 14, 12, 12, 12, 12, 12, 12, 12, 12, 12, 12, 14, 12, 12, 12, 12, 12,
        12, 12, 12, 12, 12, 12, 13, 13, 12, 12, 12, 12, 12, 13, 12, 12, 12, 12, 12, 12, 12, 12, 12, 12, 12, 12, 12, 12, 14, 13, 12, 12, 12, 12, 12, 12, 13, 12, 12, 12, 12, 12, 12, 13, 12, 12, 12, 12, 12, 12, 13, 12,
        12, 12, 13, 12, 12, 12, 12, 12, 12, 12, 12, 12, 12, 13, 12, 14, 12, 12, 12, 13, 12, 13, 12, 12, 12, 12, 12, 14, 14, 12, 14, 12, 12, 14, 12, 12, 12, 12, 13, 12, 12, 12, 12, 13, 12, 12, 14, 13, 12, 12, 12, 14,
        12, 13, 12, 12, 12, 12, 12, 13, 12, 12, 14, 12, 12, 12, 12, 13, 13, 12, 12, 14, 12, 13, 12, 12, 13, 12, 14, 12, 12, 12, 13, 12, 12, 12, 12, 12, 12, 12, 12, 13, 13, 12, 12, 12, 12, 12, 12, 12, 12, 12, 13, 13,
        12, 14, 12, 14, 12, 12, 12, 12, 37, 37, 37, 37, 37, 37, 37, 37, 37, 37, 12, 13, 12, 12, 12, 12, 12, 12, 12, 13, 12, 12, 13, 12, 12, 13, 13, 12, 14, 14, 12, 12, 12, 12, 13, 14, 12, 12, 12, 12, 13, 13, 12, 12,
        14, 12, 12, 12, 13, 12, 12, 12, 37, 37, 37, 37, 37, 37, 37, 37, 37, 37, 12, 12, 14, 12, 12, 12, 12, 12, 12, 12, 12, 12, 12, 12, 12, 12, 12, 12, 12, 12, 12, 12, 12, 12, 12, 14, 14, 12, 12, 12, 12, 12, 12, 12,
        12, 12, 12, 12, 12, 12, 13, 12, 37, 37, 37, 37, 37, 37, 37, 37, 37, 37, 12, 12, 12, 12, 12, 12, 12, 12, 13, 12, 12, 12, 12, 12, 12, 12, 12, 13, 12, 12, 12, 13, 37, 14, 13, 12, 12, 12, 12, 14, 13, 12, 12, 12,
        12, 12, 12, 12, 12, 12, 12, 12, 37, 37, 37, 37, 37, 37, 37, 37, 37, 37, 12, 12, 12, 13, 12, 12, 12, 12, 37, 12, 12, 12, 12, 12, 12, 14, 12, 12, 12, 12, 12, 14, 37, 12, 12, 12, 12, 13, 12, 13, 12, 12, 12, 12,
        13, 12, 12, 12, 12, 12, 12, 12, 37, 37, 37, 37, 37, 37, 37, 37, 37, 37, 12, 12, 12, 12, 12, 13, 12, 13, 37, 12, 12, 12, 12, 12, 12, 12, 12, 12, 13, 12, 12, 13, 37, 14, 13, 12, 12, 14, 12, 14, 12, 12, 12, 12,
        12, 12, 12, 12, 12, 12, 12, 12, 37, 37, 37, 37, 37, 37, 37, 37, 37, 37, 12, 12, 12, 12, 12, 12, 12, 12, 37, 12, 12, 13, 12, 12, 12, 12, 12, 13, 13, 12, 12, 12, 37, 12, 12, 12, 12, 13, 12, 12, 12, 12, 12, 12,
        12, 12, 12, 12, 13, 12, 12, 12, 14, 12, 12, 12, 13, 37, 12, 12, 12, 12, 12, 12, 12, 12, 12, 12, 37, 37, 37, 37, 37, 37, 37, 37, 37, 37, 37, 37, 37, 37, 37, 37, 37, 12, 12, 13, 12, 12, 12, 12, 12, 12, 12, 14,
        12, 12, 12, 13, 12, 13, 12, 13, 12, 13, 12, 12, 14, 37, 12, 12, 12, 12, 12, 12, 14, 12, 12, 12, 37, 37, 37, 37, 37, 37, 37, 37, 37, 12, 12, 12, 14, 13, 13, 12, 13, 13, 12, 12, 12, 12, 12, 12, 12, 12, 12, 12,
        12, 13, 13, 12, 12, 12, 12, 12, 14, 12, 12, 12, 12, 37, 12, 12, 12, 12, 12, 12, 14, 14, 14, 12, 37, 37, 37, 37, 37, 37, 37, 37, 37, 12, 12, 12, 12, 12, 13, 14, 12, 37, 37, 37, 37, 37, 37, 12, 12, 12, 12, 12,
        14, 13, 12, 13, 12, 12, 12, 12, 12, 12, 12, 12, 12, 37, 37, 37, 37, 37, 37, 37, 37, 37, 37, 37, 37, 37, 37, 37, 37, 37, 37, 37, 37, 37, 37, 37, 37, 37, 37, 37, 37, 37, 37, 37, 37, 37, 37, 14, 12, 12, 13, 12,
        12, 12, 14, 12, 12, 12, 13, 14, 12, 12, 12, 12, 12, 14, 12, 14, 12, 12, 12, 12, 12, 12, 14, 12, 37, 37, 37, 37, 37, 37, 37, 37, 37, 12, 12, 12, 12, 12, 12, 12, 12, 37, 37, 37, 37, 37, 37, 14, 12, 12, 12, 12,
        12, 12, 14, 12, 12, 12, 12, 13, 14, 12, 13, 12, 12, 12, 12, 12, 12, 13, 12, 12, 12, 12, 14, 13, 37, 37, 37, 37, 37, 37, 37, 37, 37, 12, 12, 13, 12, 12, 12, 14, 12, 37, 37, 37, 37, 37, 37, 12, 12, 12, 12, 12,
        13, 12, 12, 12, 12, 12, 12, 12, 12, 12, 12, 12, 12, 13, 12, 12, 12, 12, 12, 14, 12, 12, 12, 12, 37, 37, 37, 37, 37, 37, 37, 37, 37, 12, 12, 13, 12, 12, 12, 12, 14, 37, 37, 37, 37, 37, 37, 12, 12, 13, 12, 12,
        12, 12, 12, 12, 12, 12, 12, 12, 14, 12, 12, 13, 12, 12, 12, 13, 14, 12, 12, 13, 14, 12, 12, 12, 12, 12, 12, 12, 37, 12, 12, 12, 12, 12, 12, 12, 12, 12, 12, 12, 12, 12, 13, 14, 12, 12, 12, 12, 12, 12, 12, 12,
        12, 12, 12, 108, 108, 108, 108, 108, 108, 108, 108, 108, 108, 108, 108, 108, 108, 108, 108, 108, 108, 108, 108, 108, 108, 12, 12, 12, 37, 12, 12, 12, 12, 12, 12, 12, 12, 12, 12, 12, 12, 12, 12, 14, 12, 12, 12, 12, 12, 12, 12, 12,
        12, 12, 14, 109, 109, 109, 109, 109, 109, 109, 109, 109, 109, 109, 109, 109, 109, 109, 109, 109, 109, 109, 109, 109, 109, 12, 12, 12, 12, 12, 14, 13, 12, 12, 12, 12, 12, 12, 12, 9, 9, 9, 12, 14, 12, 12, 12, 12, 12, 12, 13, 12,
        9, 12, 12, 110, 110, 110, 110, 110, 110, 110, 110, 110, 110, 110, 110, 110, 110, 110, 110, 110, 110, 110, 110, 110, 110, 9, 9, 9, 12, 12, 12, 13, 13, 12, 12, 14, 12, 14, 12, 9, 9, 9, 12, 9, 9, 9, 9, 9, 9, 9, 9, 9,
        9, 9, 14, 10, 10, 2, 2, 2, 10, 10, 10, 2, 2, 2, 10, 10, 10, 2, 2, 2, 2, 2, 10, 10, 10, 9, 9, 9, 9, 9, 10, 10, 10, 2, 2, 10, 10, 10, 10, 10, 10, 10, 9, 9, 9, 9, 9, 9, 9, 9, 9, 9,
        10, 9, 9, 10, 10, 2, 2, 2, 10, 10, 10, 2, 2, 2, 10, 10, 10, 2, 2, 2, 2, 2, 10, 10, 10, 10, 10, 10, 9, 9, 10, 10, 10, 2, 2, 10, 10, 10, 10, 10, 10, 10, 9, 10, 10, 10, 10, 10, 10, 10, 10, 10,
        10, 10, 9, 10, 10, 2, 2, 2, 10, 10, 10, 2, 2, 2, 10, 10, 10, 2, 2, 2, 2, 2, 10, 10, 10, 10, 10, 10, 10, 10, 10, 10, 10, 2, 2, 10, 10, 10, 10, 10, 10, 10, 10, 10, 10, 10, 10, 10, 10, 10, 10, 10,
        10, 10, 10, 10, 10, 2, 2, 2, 10, 10, 10, 2, 2, 2, 10, 10, 10, 2, 2, 2, 2, 2, 10, 10, 10, 10, 10, 10, 10, 10, 10, 10, 10, 2, 2, 10, 10, 10, 10, 10, 10, 10, 10, 10, 10, 10, 10, 10, 10, 10, 10, 10,
        10, 10, 10, 10, 10, 2, 2, 2, 10, 10, 10, 2, 2, 2, 10, 10, 10, 2, 2, 2, 2, 2, 10, 10, 10, 10, 10, 10, 10, 10, 10, 10, 10, 2, 2, 10, 10, 10, 10, 10, 10, 10, 10, 10, 10, 10, 10, 10, 10, 10, 10, 10,
        10, 10, 10, 10, 10, 2, 2, 2, 10, 10, 10, 2, 2, 2, 10, 10, 10, 2, 2, 2, 10, 10, 10, 10, 10, 10, 10, 10, 10, 10, 10, 10, 10, 10, 10, 10, 10, 10, 10, 10, 10, 10, 10, 10, 10, 10, 10, 10, 10, 10, 10, 10,
        10, 10, 10, 10, 10, 2, 2, 2, 10, 10, 10, 2, 2, 2, 10, 10, 10, 2, 2, 2, 10, 10, 10, 10, 10, 10, 10, 10, 10, 10, 10, 10, 10, 10, 10, 10, 10, 10, 10, 10, 10, 10, 10, 10, 10, 10, 10, 10, 10, 10, 10, 10,
        10, 10, 10, 10, 10, 10, 10, 10, 10, 10, 10, 10, 10, 10, 10, 10, 10, 10, 10, 10, 10, 10, 10, 10, 10, 10, 10, 10, 10, 10, 10, 10, 10, 10, 10, 10, 10, 10, 10, 10, 10, 10, 10, 10, 10, 10, 10, 10, 10, 10, 10, 10,
        10, 10, 10, 10, 10, 10, 10, 10, 10, 10, 10, 10, 10, 10, 10, 10, 10, 10, 10, 10, 10, 10, 10, 10, 10, 10, 10, 10, 10, 10, 10, 10, 10, 10, 10, 10, 10, 10, 10, 10, 10, 10, 10, 10, 10, 10, 10, 10, 10, 10, 10, 10,
        10, 10, 10, 10, 10, 10, 10, 10, 10, 10, 10, 10, 10, 10, 10, 10, 10, 10, 10, 10, 10, 10, 10, 10, 10, 10, 10, 10, 10, 10, 10, 10, 10, 10, 10, 10, 10, 10, 10, 10, 10, 10, 10, 10, 10, 10, 10, 10, 10, 10, 10, 10,
        10, 10, 10, 10, 10, 10, 10, 10, 10, 10, 10, 10, 10, 10, 10, 10, 10, 10, 10, 10, 10, 10, 10, 10, 10, 10, 10, 10, 10, 10, 10, 10, 10, 10, 10, 10, 10, 10, 10, 10, 10, 10, 10, 10, 10, 10, 10, 10, 10, 10, 10, 10,
        10, 10, 10, 10, 10, 10, 10, 10, 10, 10, 10, 10, 10, 10, 10, 10, 10, 10, 10, 10, 10, 10, 10, 10, 10, 10, 10, 10, 10, 10, 10, 10, 10, 10, 10, 10, 10, 10, 10, 10, 10, 10, 10, 10, 10, 10, 10, 10, 10, 10, 10, 10,
        10, 10, 10, 10, 10, 10, 10, 10, 10, 10, 10, 10, 10, 10, 10, 10, 10, 10, 10, 10, 10, 10, 10, 10, 10, 10, 10, 10, 10, 10, 10, 10, 10, 10, 10, 10, 10, 10, 10, 10, 10, 10, 10, 10, 10, 10, 10, 10, 10, 10, 10, 10
      ]
    },
    {
      "id": 2,
      "name": "Kollision",
      "type": "tilelayer",
      "visible": true,
      "opacity": 1,
      "x": 0,
      "y": 0,
      "width": 52,
      "height": 40,
      "data": [
        0, 0, 0, 0, 0, 0, 0, 0, 0, 0, 0, 0, 0, 0, 0, 0, 0, 0, 0, 0, 0, 0, 0, 0, 0, 0, 0, 0, 0, 0, 0, 0, 0, 0, 0, 0, 0, 0, 0, 0, 0, 0, 0, 0, 0, 0, 0, 0, 0, 0, 0, 0,
        0, 0, 0, 0, 0, 0, 0, 0, 0, 0, 0, 0, 0, 0, 0, 0, 0, 0, 0, 0, 0, 0, 0, 0, 0, 0, 0, 0, 0, 0, 0, 0, 0, 0, 0, 0, 0, 0, 0, 0, 0, 0, 0, 0, 0, 0, 0, 0, 0, 0, 0, 0,
        0, 0, 0, 0, 0, 0, 0, 0, 0, 0, 0, 0, 0, 0, 0, 0, 0, 0, 0, 0, 0, 0, 0, 0, 0, 0, 0, 0, 0, 0, 0, 0, 0, 0, 0, 0, 0, 0, 0, 0, 0, 0, 0, 0, 0, 0, 0, 0, 0, 0, 0, 0,
        0, 0, 0, 0, 0, 0, 0, 0, 0, 0, 0, 0, 0, 0, 0, 0, 0, 0, 0, 0, 0, 0, 0, 0, 0, 0, 0, 0, 0, 0, 0, 0, 0, 0, 0, 0, 0, 0, 0, 0, 0, 0, 0, 0, 0, 0, 0, 0, 0, 0, 0, 0,
        0, 0, 0, 0, 0, 0, 0, 0, 0, 0, 0, 0, 0, 0, 0, 0, 0, 0, 0, 0, 0, 0, 0, 0, 0, 0, 0, 0, 0, 0, 0, 0, 0, 0, 0, 0, 0, 0, 0, 0, 0, 0, 0, 0, 0, 0, 0, 0, 0, 0, 0, 0,
        0, 0, 0, 0, 0, 0, 0, 0, 0, 0, 0, 0, 0, 0, 0, 0, 0, 0, 0, 0, 0, 0, 0, 0, 0, 0, 0, 0, 0, 0, 0, 0, 0, 0, 0, 0, 0, 0, 0, 0, 0, 0, 0, 0, 0, 0, 0, 0, 0, 0, 0, 0,
        0, 0, 0, 0, 0, 0, 0, 0, 0, 0, 0, 0, 0, 0, 0, 0, 0, 0, 0, 0, 0, 0, 0, 0, 0, 0, 0, 0, 0, 0, 0, 0, 0, 0, 0, 0, 0, 0, 0, 0, 0, 0, 0, 0, 0, 0, 0, 0, 0, 0, 0, 0,
        0, 0, 0, 0, 0, 0, 0, 0, 0, 0, 0, 0, 0, 0, 0, 0, 0, 0, 0, 0, 0, 0, 0, 0, 0, 0, 0, 0, 0, 0, 0, 0, 0, 0, 0, 0, 0, 0, 0, 0, 0, 0, 0, 0, 0, 0, 0, 0, 0, 0, 0, 0,
        0, 0, 0, 0, 0, 0, 0, 0, 0, 0, 0, 0, 0, 0, 0, 0, 0, 0, 0, 0, 0, 0, 0, 0, 0, 0, 0, 0, 0, 0, 0, 0, 0, 0, 0, 0, 0, 0, 0, 0, 0, 0, 0, 0, 0, 0, 0, 0, 0, 0, 0, 0,
        0, 0, 0, 0, 0, 0, 0, 0, 0, 0, 0, 0, 0, 0, 0, 0, 0, 0, 0, 0, 0, 0, 0, 0, 0, 0, 0, 0, 0, 0, 0, 0, 0, 0, 0, 0, 0, 0, 0, 0, 0, 0, 0, 0, 0, 0, 0, 0, 0, 0, 0, 0,
        0, 0, 0, 0, 0, 0, 0, 0, 0, 0, 0, 0, 0, 0, 0, 0, 0, 0, 0, 0, 0, 0, 0, 0, 0, 0, 0, 0, 0, 0, 0, 0, 0, 0, 0, 0, 0, 0, 0, 0, 0, 0, 0, 0, 0, 0, 0, 0, 0, 0, 0, 0,
        0, 0, 0, 0, 0, 0, 0, 0, 0, 0, 0, 0, 0, 0, 0, 0, 0, 0, 0, 0, 0, 0, 0, 0, 0, 0, 0, 0, 0, 0, 0, 0, 0, 0, 0, 0, 0, 0, 0, 0, 0, 0, 0, 0, 0, 0, 0, 0, 0, 0, 0, 0,
        0, 0, 0, 0, 0, 0, 0, 0, 0, 0, 0, 0, 0, 0, 0, 0, 0, 0, 0, 0, 0, 0, 0, 0, 0, 0, 0, 0, 0, 0, 0, 0, 0, 0, 0, 0, 0, 0, 0, 0, 0, 0, 0, 0, 0, 0, 0, 0, 0, 0, 0, 0,
        0, 0, 0, 0, 0, 0, 0, 0, 0, 0, 0, 0, 0, 0, 0, 0, 0, 0, 0, 0, 0, 0, 0, 0, 0, 0, 0, 0, 0, 0, 0, 0, 0, 0, 0, 0, 0, 0, 0, 0, 0, 0, 0, 0, 0, 0, 0, 0, 0, 0, 0, 0,
        0, 0, 0, 0, 0, 0, 0, 0, 0, 0, 0, 0, 0, 0, 0, 0, 0, 0, 0, 0, 0, 0, 0, 0, 0, 0, 0, 0, 0, 0, 0, 0, 0, 0, 0, 0, 0, 0, 0, 0, 0, 0, 0, 0, 0, 0, 0, 0, 0, 0, 0, 0,
        0, 0, 0, 0, 0, 0, 0, 0, 0, 0, 0, 0, 0, 0, 0, 0, 0, 0, 0, 0, 0, 0, 0, 0, 0, 0, 0, 0, 0, 0, 0, 0, 0, 0, 0, 0, 0, 0, 0, 0, 0, 0, 0, 0, 0, 0, 0, 0, 0, 0, 0, 0,
        0, 0, 0, 0, 0, 0, 0, 0, 0, 0, 0, 0, 0, 0, 0, 0, 0, 0, 0, 0, 0, 0, 0, 0, 0, 0, 0, 0, 0, 0, 0, 0, 0, 0, 0, 0, 0, 0, 0, 0, 0, 0, 0, 0, 0, 0, 0, 0, 0, 0, 0, 0,
        0, 0, 0, 0, 0, 0, 0, 0, 0, 0, 0, 0, 0, 0, 0, 0, 0, 0, 0, 0, 0, 0, 0, 0, 0, 0, 0, 0, 0, 0, 0, 0, 0, 0, 0, 0, 0, 0, 0, 0, 0, 0, 0, 0, 0, 0, 0, 0, 0, 0, 0, 0,
        0, 0, 0, 0, 0, 0, 0, 0, 0, 0, 0, 0, 0, 0, 0, 0, 0, 0, 0, 0, 0, 0, 0, 0, 0, 0, 0, 0, 0, 0, 0, 0, 0, 0, 0, 0, 0, 0, 0, 0, 0, 0, 0, 0, 0, 0, 0, 0, 0, 0, 0, 0,
        0, 0, 0, 0, 0, 0, 0, 0, 0, 0, 0, 0, 0, 0, 0, 0, 0, 0, 0, 0, 0, 0, 0, 0, 0, 0, 0, 0, 0, 0, 0, 0, 0, 0, 0, 0, 0, 0, 0, 0, 0, 0, 0, 0, 0, 0, 0, 0, 0, 0, 0, 0,
        0, 0, 0, 0, 0, 0, 0, 0, 0, 0, 0, 0, 0, 0, 0, 0, 0, 0, 0, 0, 0, 0, 0, 0, 0, 0, 0, 0, 0, 0, 0, 0, 0, 0, 0, 0, 0, 0, 0, 0, 0, 0, 0, 0, 0, 0, 0, 0, 0, 0, 0, 0,
        0, 0, 0, 0, 0, 0, 0, 0, 0, 0, 0, 0, 0, 0, 0, 0, 0, 0, 0, 0, 0, 0, 0, 0, 0, 0, 0, 0, 0, 0, 0, 0, 0, 0, 0, 0, 0, 0, 0, 0, 0, 0, 0, 0, 0, 0, 0, 0, 0, 0, 0, 0,
        0, 0, 0, 0, 0, 0, 0, 0, 0, 0, 0, 0, 0, 0, 0, 0, 0, 0, 0, 0, 0, 0, 0, 0, 0, 0, 0, 0, 0, 0, 0, 0, 0, 0, 0, 0, 0, 0, 0, 0, 0, 0, 0, 0, 0, 0, 0, 0, 0, 0, 0, 0,
        0, 0, 0, 0, 0, 0, 0, 0, 0, 0, 0, 0, 0, 0, 0, 0, 0, 0, 0, 0, 0, 0, 0, 0, 0, 0, 0, 0, 0, 0, 0, 0, 0, 0, 0, 0, 0, 0, 0, 0, 0, 0, 0, 0, 0, 0, 0, 0, 0, 0, 0, 0,
        0, 0, 0, 0, 0, 0, 0, 0, 0, 0, 0, 0, 0, 0, 0, 0, 0, 0, 0, 0, 0, 0, 0, 0, 0, 0, 0, 0, 0, 0, 0, 0, 0, 0, 0, 0, 0, 0, 0, 0, 0, 0, 0, 0, 0, 0, 0, 0, 0, 0, 0, 0,
        0, 0, 0, 0, 0, 0, 0, 0, 0, 0, 0, 0, 0, 0, 0, 0, 0, 0, 0, 0, 0, 0, 0, 0, 0, 0, 0, 0, 0, 0, 0, 0, 0, 0, 0, 0, 0, 0, 0, 0, 0, 0, 0, 0, 0, 0, 0, 0, 0, 0, 0, 0,
        0, 0, 0, 0, 0, 0, 0, 0, 0, 0, 0, 0, 0, 0, 0, 0, 0, 0, 0, 0, 0, 0, 0, 0, 0, 0, 0, 0, 0, 0, 0, 0, 0, 0, 0, 0, 0, 0, 0, 0, 0, 0, 0, 0, 0, 0, 0, 0, 0, 0, 0, 0,
        0, 0, 0, 14, 14, 0, 0, 0, 14, 14, 14, 0, 0, 0, 14, 14, 14, 0, 0, 0, 0, 0, 14, 14, 14, 0, 0, 0, 0, 0, 14, 14, 14, 0, 0, 14, 14, 14, 14, 14, 14, 14, 0, 0, 0, 0, 0, 0, 0, 0, 0, 0,
        14, 0, 0, 14, 14, 0, 0, 0, 14, 14, 14, 0, 0, 0, 14, 14, 14, 0, 0, 0, 0, 0, 14, 14, 14, 14, 14, 14, 0, 0, 14, 14, 14, 0, 0, 14, 14, 14, 14, 14, 14, 14, 0, 14, 14, 14, 14, 14, 14, 14, 14, 14,
        14, 14, 0, 14, 14, 0, 0, 0, 14, 14, 14, 0, 0, 0, 14, 14, 14, 0, 0, 0, 0, 0, 14, 14, 14, 14, 14, 14, 14, 14, 14, 14, 14, 0, 0, 14, 14, 14, 14, 14, 14, 14, 14, 14, 14, 14, 14, 14, 14, 14, 14, 14,
        14, 14, 14, 14, 14, 0, 0, 0, 14, 14, 14, 0, 0, 0, 14, 14, 14, 0, 0, 0, 0, 0, 14, 14, 14, 14, 14, 14, 14, 14, 14, 14, 14, 0, 0, 14, 14, 14, 14, 14, 14, 14, 14, 14, 14, 14, 14, 14, 14, 14, 14, 14,
        14, 14, 14, 14, 14, 0, 0, 0, 14, 14, 14, 0, 0, 0, 14, 14, 14, 0, 0, 0, 0, 0, 14, 14, 14, 14, 14, 14, 14, 14, 14, 14, 14, 0, 0, 0, 0, 0, 14, 14, 14, 14, 14, 14, 14, 14, 14, 14, 14, 14, 14, 14,
        14, 14, 14, 14, 14, 0, 0, 0, 14, 14, 14, 0, 0, 0, 14, 14, 14, 0, 0, 0, 14, 14, 14, 14, 14, 14, 14, 14, 14, 14, 14, 0, 0, 0, 0, 0, 0, 0, 0, 14, 14, 14, 14, 14, 14, 14, 14, 14, 14, 14, 14, 14,
        14, 14, 14, 14, 14, 0, 0, 0, 14, 14, 14, 0, 0, 0, 14, 14, 14, 0, 0, 0, 14, 14, 14, 14, 14, 14, 14, 14, 14, 14, 14, 14, 0, 0, 0, 0, 0, 0, 14, 14, 14, 14, 14, 14, 14, 14, 14, 14, 14, 14, 14, 14,
        14, 14, 14, 14, 14, 14, 14, 14, 14, 14, 14, 14, 14, 14, 14, 14, 14, 14, 14, 14, 14, 14, 14, 14, 14, 14, 14, 14, 14, 14, 14, 14, 14, 14, 14, 14, 14, 14, 14, 14, 14, 14, 14, 14, 14, 14, 14, 14, 14, 14, 14, 14,
        14, 14, 14, 14, 14, 14, 14, 14, 14, 14, 14, 14, 14, 14, 14, 14, 14, 14, 14, 14, 14, 14, 14, 14, 14, 14, 14, 14, 14, 14, 14, 14, 14, 14, 14, 14, 14, 14, 14, 14, 14, 14, 14, 14, 14, 14, 14, 14, 14, 14, 14, 14,
        14, 14, 14, 14, 14, 14, 14, 14, 14, 14, 14, 14, 14, 14, 14, 14, 14, 14, 14, 14, 14, 14, 14, 14, 14, 14, 14, 14, 14, 14, 14, 14, 14, 14, 14, 14, 14, 14, 14, 14, 14, 14, 14, 14, 14, 14, 14, 14, 14, 14, 14, 14,
        14, 14, 14, 14, 14, 14, 14, 14, 14, 14, 14, 14, 14, 14, 14, 14, 14, 14, 14, 14, 14, 14, 14, 14, 14, 14, 14, 14, 14, 14, 14, 14, 14, 14, 14, 14, 14, 14, 14, 14, 14, 14, 14, 14, 14, 14, 14, 14, 14, 14, 14, 14,
        14, 14, 14, 14, 14, 14, 14, 14, 14, 14, 14, 14, 14, 14, 14, 14, 14, 14, 14, 14, 14, 14, 14, 14, 14, 14, 14, 14, 14, 14, 14, 14, 14, 14, 14, 14, 14, 14, 14, 14, 14, 14, 14, 14, 14, 14, 14, 14, 14, 14, 14, 14,
        14, 14, 14, 14, 14, 14, 14, 14, 14, 14, 14, 14, 14, 14, 14, 14, 14, 14, 14, 14, 14, 14, 14, 14, 14, 14, 14, 14, 14, 14, 14, 14, 14, 14, 14, 14, 14, 14, 14, 14, 14, 14, 14, 14, 14, 14, 14, 14, 14, 14, 14, 14
      ]
    },
    {
      "id": 3,
      "name": "Türen",
      "type": "objectgroup",
      "visible": true,
      "opacity": 1,
      "x": 0,
      "y": 0,
      "draworder": "topdown",
      "objects": [
        {
          "id": 1,
          "name": "hafenmeisterei",
          "type": "warp",
          "x": 416,
          "y": 192,
          "width": 16,
          "height": 16,
          "rotation": 0,
          "visible": true,
          "properties": [
            {
              "name": "theme",
              "type": "string",
              "value": "office"
            },
            {
              "name": "title",
              "type": "string",
              "value": "Hafenmeisterei"
            },
            {
              "name": "npc",
              "type": "string",
              "value": "ole"
            }
          ]
        },
        {
          "id": 2,
          "name": "werft",
          "type": "warp",
          "x": 160,
          "y": 160,
          "width": 16,
          "height": 16,
          "rotation": 0,
          "visible": true,
          "properties": [
            {
              "name": "theme",
              "type": "string",
              "value": "forge"
            },
            {
              "name": "title",
              "type": "string",
              "value": "Werft"
            },
            {
              "name": "npc",
              "type": "string",
              "value": "runa"
            }
          ]
        },
        {
          "id": 3,
          "name": "kartenhaus",
          "type": "warp",
          "x": 640,
          "y": 176,
          "width": 16,
          "height": 16,
          "rotation": 0,
          "visible": true,
          "properties": [
            {
              "name": "theme",
              "type": "string",
              "value": "chart"
            },
            {
              "name": "title",
              "type": "string",
              "value": "Kartenhaus"
            },
            {
              "name": "npc",
              "type": "string",
              "value": "ada"
            }
          ]
        },
        {
          "id": 4,
          "name": "schiff",
          "type": "warp",
          "x": 544,
          "y": 512,
          "width": 16,
          "height": 16,
          "rotation": 0,
          "visible": true,
          "properties": [
            {
              "name": "theme",
              "type": "string",
              "value": "ship"
            },
            {
              "name": "title",
              "type": "string",
              "value": "Deine Kajüte"
            },
            {
              "name": "npc",
              "type": "string",
              "value": "kralle"
            }
          ]
        }
      ]
    },
    {
      "id": 4,
      "name": "NPCs",
      "type": "objectgroup",
      "visible": true,
      "opacity": 1,
      "x": 0,
      "y": 0,
      "draworder": "topdown",
      "objects": [
        {
          "id": 5,
          "name": "ole",
          "type": "npc",
          "x": 416,
          "y": 233.6,
          "width": 16,
          "height": 16,
          "rotation": 0,
          "visible": true
        },
        {
          "id": 6,
          "name": "bo",
          "type": "npc",
          "x": 128,
          "y": 400,
          "width": 16,
          "height": 16,
          "rotation": 0,
          "visible": true
        },
        {
          "id": 7,
          "name": "ada",
          "type": "npc",
          "x": 640,
          "y": 217.6,
          "width": 16,
          "height": 16,
          "rotation": 0,
          "visible": true
        },
        {
          "id": 8,
          "name": "runa",
          "type": "npc",
          "x": 208,
          "y": 208,
          "width": 16,
          "height": 16,
          "rotation": 0,
          "visible": true
        },
        {
          "id": 9,
          "name": "theo",
          "type": "npc",
          "x": 704,
          "y": 329.6,
          "width": 16,
          "height": 16,
          "rotation": 0,
          "visible": true
        },
        {
          "id": 10,
          "name": "pelle",
          "type": "npc",
          "x": 496,
          "y": 275.2,
          "width": 16,
          "height": 16,
          "rotation": 0,
          "visible": true
        },
        {
          "id": 11,
          "name": "juno",
          "type": "npc",
          "x": 732.8,
          "y": 387.2,
          "width": 16,
          "height": 16,
          "rotation": 0,
          "visible": true
        }
      ]
    }
  ]
}
